sanis/img/main/three_steps/2.svg

<svg width="69" height="68" viewBox="0 0 69 68" fill="none" xmlns="http://www.w3.org/2000/svg">
<path fill-rule="evenodd" clip-rule="evenodd" d="M2.62012 65.3829L34.511 41.2432L66.3796 65.3829" fill="#F9C859"/>
<path d="M2.62012 65.3829L34.511 41.2432L66.3796 65.3829" stroke="black" stroke-width="3" stroke-miterlimit="3.8637"/>
<path d="M16.9119 6.13281H12.5146V34.6615" stroke="black" stroke-width="3" stroke-miterlimit="3.8637"/>
<path d="M9.31249 24.849H2.62012V65.3837H66.3796V24.7852H59.8162" stroke="black" stroke-width="3" stroke-miterlimit="3.8637"/>
<path d="M2.62012 65.3829L34.511 41.2432L66.3796 65.3829" stroke="black" stroke-width="3" stroke-miterlimit="3.8637"/>
<path d="M56.4835 35.0532V1.74316H16.9087V36.7171" stroke="black" stroke-width="3" stroke-miterlimit="3.8637"/>
<path d="M2.62012 24.7852L23.5068 44.5358" stroke="black" stroke-width="3" stroke-miterlimit="3.8637"/>
<path d="M66.3787 24.7852L46.5913 44.5358" stroke="black" stroke-width="3" stroke-miterlimit="3.8637"/>
<path d="M23.6162 13.5127H38.9173" stroke="black" stroke-width="3" stroke-miterlimit="3.8637"/>
<path d="M23.6162 19.6221H49.9681" stroke="black" stroke-width="3" stroke-miterlimit="3.8637"/>
<path d="M23.6162 25.7246H49.9681" stroke="black" stroke-width="3" stroke-miterlimit="3.8637"/>
<path d="M23.6162 31.8818H28.8247" stroke="black" stroke-width="3" stroke-miterlimit="3.8637"/>
</svg>

<svg width="69" height="68" fill="none" xmlns="http://www.w3.org/2000/svg"><path fill-rule="evenodd" clip-rule="evenodd" d="M2.62 65.383l31.891-24.14 31.869 24.14" fill="#F9C859"/><path d="M2.62 65.383l31.891-24.14 31.869 24.14M16.912 6.133h-4.397V34.66" stroke="#000" stroke-width="3" stroke-miterlimit="3.864"/><path d="M9.312 24.849H2.62v40.535h63.76V24.785h-6.564" stroke="#000" stroke-width="3" stroke-miterlimit="3.864"/><path d="M2.62 65.383l31.891-24.14 31.869 24.14m-9.897-30.33V1.743H16.91v34.974M2.62 24.785l20.887 19.75m42.872-19.75L46.59 44.535M23.616 13.513h15.301m-15.301 6.109h26.352m-26.352 6.103h26.352m-26.352 6.157h5.209" stroke="#000" stroke-width="3" stroke-miterlimit="3.864"/></svg>
